X: 800
T: Alabama Rick's
R: jig
M: 6/8
K: Amajor
|:AFE FAd|cAA ~A3|Ace ~f3|ecA BcB|
AFE FAd|cAA ~A3|Ace ~f3|1 ecA A2c:|2 ecA A2f||
|:=ged ~B3|de=g ef^g|aec Ace|aec A2 f|
=ged ~B3|de=g ef^g|aec ~f3|1 ecA A2f:|2 ecA Afg||
|:aec efe|dec efe|ceB efe|ceB efg|
aec efe|dec efg|aec ~f3|1 ecA Afg:|2 ecA A3||

